!! 00000] TT[00
!! NN
!!!OTL: Da mai ge
!!!ARE: Asia, China,Anhui, Dangtu
!! Ethnic Group: Han
!! III, 563
!!!SCT: C0346
!!!YEM: Copyright 1995, estate of Helmut Schaffrath.
**kern
*ICvox
*Ivox
!! Mixed meters:  2/4; 3/4
*M3/4
*k[]
*C:
{8a
8a
8cc
16a
16cc
=1
8a
16a
16cc
16cc
16dd
8ee
4ee}
=2
*M2/4
{8a
16a
16cc
4dd
=3
*M3/4
4ee
8.dd
16cc
4a}
=4
{8ee
8cc
8dd
16ee
16dd
4a}
=5
*M2/4
{8a
16a
16a
8cc
8dd
=6
8ee
8cc
8a
8g}
=7
{8a
8dd
4cc
=8
8dd
8a
4g}
=9
{8a
8cc
8e
16e
16g
=10
8.a
16g
4a
=11
8.a
16g
4a}
==
!!!AGN: Arbeit; HAOZI. Weizen dreschen
!! Der Weizen wird auf einem Brett gedroschen. Die Arbeiter wechseln
!!    Wenig Verzierungen und Glissandi.
!!    Phrasierung schwierig! Evtl. noch kuerzere Phrasen.
!!!ONB: ESAC (Essen Associative Code) Database: CHINA_044
!!!AMT: irregular
!!!AIN: vox
!!!EED: Helmut Schaffrath
!!!EEV: 1.0
*-
